X:17
T:17. Sir Charles Cotton's Hornpipe
M:C
L:1/8
Q:1/4=160
Z:Peter Dunk, VMP, 2011
K:D
F>G | A2 A2 BAGF | G2 E2 E2 z f | gfge cecA | d2 D2 D2 f>g |!
a2 d2 d3 f | ec a2 aedc | dfBd ce^GB | A2 A2 A2 :|!
|: A>G | F2 D2 D2 d>c | B2 G2 G2 B>A | ^G2 E2 E2 e>d | c2 A2 A2 z c |!
dfad dAB=c | BGdB g3 e | fadf egec | d2 d2 d2 :|!

